!!!!SEGMENT: pl-cz--ii-8--004_stefani-jozef--requiem-lswiety.krn
!!!cenid: 18xx:1062
!!!COM: Stefani, Józef
!!!COM-rismid: pe30024097
!!!CDT: 1800/04/16-1876/03/19
!!!CNT: Polish
!!!OPR: Requiem
!!!OTL: Święty
!!!OMV: 004
!!!PDT:
!!!AGN: Sacred; Requiem
!!!SMS-siglum: PL-CZ
!!!SMS-shelfmark: II-8
!!!SMS-shelfwork: 001-004 M
!!!SMS-variant:
!!!SMS-altvar:
!!!NIFC-rismid: 300001272
!!!URL-scan: http://repozytorium.nifc.pl/skany/pl-cz-nut--ii-8
!!!ONB-nifc: UWAGA: części Requiem: Racz wiekuisty pokój, Dzień ów dzień – Trąba dziwnym głosem ryknie, Chryste Jezu, Święty, Baranku Boży
!!!key: c
**kern	**fba	**kern	**dynam	**kern	**text	**kern	**text	**kern	**text	**kern	**text	**dynam
*part5	*part5	*part5	*part5	*part4	*part4	*part3	*part3	*part2	*part2	*part1	*part1	*part1
*staff6	*staff6	*staff5	*	*staff4	*staff4	*staff3	*staff3	*staff2	*staff2	*staff1	*staff1	*
*	*	*	*	*group1	*	*group1	*	*group1	*	*group1	*	*
*I"Organo.	*	*	*	*I"Baſso	*	*I"Tenore.	*	*I"Sorpano 2do	*	*I"Sorpano 1mo	*	*
*I'org	*	*	*	*I'B	*	*I'T	*	*I'S 2	*	*I'S 1	*	*
*Iorgan	*	*	*	*Ibass	*	*Itenor	*	*Isoprn	*	*Isoprn	*	*
*ICklav	*	*	*	*ICvox	*	*ICvox	*	*ICvox	*	*ICvox	*	*
*IGcont	*	*	*	*IGcoro	*	*IGcoro	*	*IGcoro	*	*IGcoro	*	*
*clefF4	*	*clefG2	*	*clefF4	*	*clefC4	*	*clefC1	*	*clefC1	*	*
*k[b-e-a-]	*	*k[b-e-a-]	*	*k[b-e-a-]	*	*k[a-b-e-]	*	*k[e-a-b-]	*	*k[e-a-b-]	*	*
*c:	*	*c:	*	*c:	*	*c:	*	*c:	*	*c:	*	*
*M4/4	*	*M4/4	*	*M4/4	*	*M4/4	*	*M4/4	*	*M4/4	*	*
*met(c)	*	*met(c)	*	*met(c)	*	*met(c)	*	*met(c)	*	*met(c)	*	*
=1	=1	=1	=1	=1	=1	=1	=1	=1	=1	=1	=1	=1
*	*	*	*	*2\right	*	*	*	*	*	*	*	*
!	!	!	!	!	!	!	!	!LO:TX:t=P:problem:przy kluczu błędnie e- f- b-	!	!LO:TX:t=P:problem:przy kluczu błędnie e- f- b-	!	!
!	!	!LO:TX:a:t=Sanctus	!	!LO:TX:a:t=Sanctus	!	!LO:TX:a:t=Sanctus	!	!LO:TX:a:t=Sanctus	!	!LO:TX:a:t=Sanctus	!	!
!	!	!LO:TX:a:B:t=Largo.	!	!LO:TX:a:B:t=Largo.	!	!LO:TX:a:B:t=Largo.	!	!LO:TX:a:B:t=Largo	!	!LO:TX:a:B:t=Largo	!	!
(4C\	.	(>2g 2e-/	.	(2C\	Swię-	(2G/	Swię-	(>2e-/	Swię-	(>2g/	Swię-	.
4E-\	.	.	.	.	.	.	.	.	.	.	.	.
4G\)	.	2f 2d 2Bn/)	.	2G\)	.	2Bn/	.	2d/)	.	2f/)	.	.
4GG/	.	.	.	.	.	.	.	.	.	.	.	.
=2	=2	=2	=2	=2	=2	=2	=2	=2	=2	=2	=2	=2
*	*	*	*	*	*	*2\right	*	*	*	*	*	*
2AA-/	.	2e- 2c/	.	2A-\	-tẏ	2c\)	-tẏ	2c/	-tẏ	2e-/	-tẏ	.
2r	.	2r	.	2r	.	2r	.	2r	.	2r	.	.
!	!	!	!	!	!	!	!	!	!	!LO:LB:g=original	!	!
=3	=3	=3	=3	=3	=3	=3	=3	=3	=3	=3	=3	=3
*^	*	*	*	*	*	*	*	*	*	*	*	*
*2\right	*	*	*	*	*	*	*	*	*	*	*2\right	*	*
2.c/	2F\	.	2a- 2f/	.	(2F\	Swię-	1c	Swię-	(>2f/	Swię-	(2a-\	Swię-	.
.	2C\	.	2g 2en/	.	2C/)	.	.	.	2en/)	.	2g\)	.	.
4B-/	.	.	.	.	.	.	.	.	.	.	.	.	.
*v	*v	*	*	*	*	*	*	*	*	*	*	*	*
!	!	!	!	!LO:LB:g=original	!	!LO:LB:g=original	!	!LO:LB:g=original	!	!	!	!
=4	=4	=4	=4	=4	=4	=4	=4	=4	=4	=4	=4	=4
2A- 2F\	.	2f/	.	2F\	-tẏ	2c\	-tẏ	2f/	-tẏ	2f/	-tẏ	.
2r	.	2r	.	2r	.	2r	.	2r	.	2r	.	.
=5	=5	=5	=5	=5	=5	=5	=5	=5	=5	=5	=5	=5
2A-\	.	2cc 2e-/	.	(2A-\	trzẏ-	2e-\	trzẏ-	2.e-/	Trzẏ-	2cc\	Trzi-	.
4G\	.	4b- 4e-/	.	4G\)	.	2e-\	-kroć	.	.	(4b-\	-kroć	.
4E-\	.	4cc 4g/	.	4E-\	-kroc	.	.	4g/	-kroć	4cc\)	.	.
=6	=6	=6	=6	=6	=6	=6	=6	=6	=6	=6	=6	=6
*	*	*^	*	*	*	*	*	*	*	*	*	*
*	*	*2\right	*	*	*	*	*	*	*	*	*	*	*
2D\	6	2.b-/	2f\	.	(2D\	Swię-	(2B-\	Swię-	1f	Swię-	(2.b-\	Swię-	.
2BB-\	7	.	2f 2d\	.	2BB-/)	.	2d\	.	.	.	.	.	.
.	.	4a-/	.	.	.	.	.	.	.	.	4a-\)	.	.
*	*	*v	*v	*	*	*	*	*	*	*	*	*	*
!	!	!	!	!	!	!	!	!	!	!LO:LB:g=original	!	!
=7	=7	=7	=7	=7	=7	=7	=7	=7	=7	=7	=7	=7
2B- 2E-\	.	2g 2e-/	.	2E-\	-tẏ	2e-\)	-tẏ	2e-/	-tẏ	2g\	-tẏ	.
4B- 4E-\	.	4g/	.	2r	.	2r	.	2r	.	2r	.	.
4Bn 4D\	.	4g 4f/	.	.	.	.	.	.	.	.	.	.
!LO:LB:g=original	!	!LO:LB:g=original	!	!LO:LB:g=original	!	!LO:LB:g=original	!	!	!	!	!	!
=8	=8	=8	=8	=8	=8	=8	=8	=8	=8	=8	=8	=8
2C\	.	2g 2e-/	.	2C/	Bog	2e-\	Bog	2e-/	Bóg	2g\	Bóg	.
(4F\	.	2an 2e- 2c/	.	(4F\	za-	2c\	za-	2e-/	za-	2an\	za-	.
4F#X\)	.	.	.	4F#X\)	.	.	.	.	.	.	.	.
!	!	!	!	!	!	!	!	!LO:LB:g=original	!	!	!	!
=9	=9	=9	=9	=9	=9	=9	=9	=9	=9	=9	=9	=9
*^	*	*^	*	*	*	*	*	*	*	*	*	*
2B-/	2G\	.	2b- 2d/	2rcyy	.	2G\	-stę-	2B-/	-stę-	2d/	-stę-	2b-\	-stę-	.
2E-\	2ryy	.	2cc/	2b- 2g\	.	2E-\	-pow	2G/	-pow	2g/	-pow	2cc\	-pów	.
=10	=10	=10	=10	=10	=10	=10	=10	=10	=10	=10	=10	=10	=10	=10
*	*	*	*	*	*	*	*	*	*	*2\right	*	*	*	*
2.f\	2F\	.	2.dd/	2.b-\	.	2.F\	nie-	2.F/	nie-	2.b-\	Nie-	2.dd\	Nie-	.
.	2ryy	.	.	.	.	.	.	.	.	.	.	.	.	.
4e-\	.	.	4cc/	4an\	.	4FF/	-po-	4E-/	-po-	4an\	-po-	4cc\	-po-	.
*v	*v	*	*	*	*	*	*	*	*	*	*	*	*	*
*	*	*v	*v	*	*	*	*	*	*	*	*	*	*
!	!	!	!	!LO:LB:g=original	!	!	!	!	!	!LO:LB:g=original	!	!
=11	=11	=11	=11	=11	=11	=11	=11	=11	=11	=11	=11	=11
2.d 2.B-\	.	2.b-/	.	2BB-/	-ię-	2D/	-ię-	2b-\	-ię-	2b-\	-ię-	.
.	.	.	.	4BB-/	-tẏ	4D/	-ty	4b-\	-tẏ	4b-\	-tẏ	.
4r	.	4r	.	4r	.	4r	.	4r	.	4r	.	.
!	!	!	!	!	!	!LO:LB:g=original	!	!	!	!	!	!
=12	=12	=12	=12	=12	=12	=12	=12	=12	=12	=12	=12	=12
!	!	!	!	!LO:SIC:v:s=2BBn/	!	!	!	!	!	!	!	!
2Bn 2BBn\	.	2g 2d/	.	2BB-/	Zie-	2G/	Zie-	2d/	Zie-	2g/	Zie-	.
!	!	!	!	!LO:SIC:v:s=4BBn/	!	!	!	!	!	!	!	!
4B 4BB\	.	4g 4d/	.	4BB-/	-mia	4G/	-mia	4d/	-mia	4g/	-mia	.
!	!	!	!	!LO:SIC:v:s=4BBn/	!	!	!	!	!	!	!	!
4B 4BB\	.	4g 4d/	.	4BB-/	ẏ	4G/	ẏ	4d/	ẏ	4g/	ẏ	.
!	!	!	!	!	!	!	!	!LO:LB:g=original	!	!	!	!
=13	=13	=13	=13	=13	=13	=13	=13	=13	=13	=13	=13	=13
*	*	*^	*	*	*	*	*	*	*	*	*	*
(2C/	.	(4g/	2e-\	.	2C/	Nie-	(>4G/	Nie-	(>2e-/	Nie-	(>4g/	Nie-	.
.	.	4an 4f#X/)	.	.	.	.	4F#X/)	.	.	.	4an/)	.	.
4BB-X/)	.	2b-/	4d\	.	4BB-X/	-bios	2G/	-bios	4d/)	-bios	2b-/	-bios	.
4E-/	.	.	4g\	.	4E-/	O-	.	.	4g/	O-	.	.	.
!	!	!	!	!	!LO:LB:g=original	!	!	!	!	!	!LO:LB:g=original	!	!
=14	=14	=14	=14	=14	=14	=14	=14	=14	=14	=14	=14	=14	=14
2C/	.	2an/	2g 2e-\	.	(>2C/	-krę-	2e-\	O-	(>2g/	-krę-	2an\	o-	.
2D/	.	2a 2f#X/	4d\	.	2D/)	.	(4d\	-krę-	2f#X/)	.	2a\	-krę-	.
.	.	.	4e- 4c\	.	.	.	4c\)	.	.	.	.	.	.
*	*	*v	*v	*	*	*	*	*	*	*	*	*	*
!	!	!	!	!	!	!LO:LB:g=original	!	!	!	!	!	!
=15	=15	=15	=15	=15	=15	=15	=15	=15	=15	=15	=15	=15
2G\	.	2g 2B-/	.	2G\	-gi	2B-\	-gi	2g\	-gi	2g\	-gi	.
2r	.	2r	.	2r	.	2r	.	2r	.	2r	.	.
!LO:PB:g=original	!	!LO:PB:g=original	!	!	!	!	!	!	!	!	!	!
=16	=16	=16	=16	=16	=16	=16	=16	=16	=16	=16	=16	=16
*^	*	*	*	*	*	*	*	*	*	*	*	*
!	!	!	!	!	!	!	!	!	!	!	!	!	!LO:DY:b:t=for.:rj
2B-/	1E-	.	2b- 2g/	.	2E-\	Peł-	2B-\	Peł-	2g\	Peł-	2b-\	Peł-	f
4d/	.	.	4cc 4a-/	.	4E-\	-ne	4d\	-ne	4a-\	-ne	4cc\	-ne	.
4e-/	.	.	4b- 4g/	.	4E-\	są	4e-\	są	4g\	są	4b-\	są	.
*v	*v	*	*	*	*	*	*	*	*	*	*	*	*
!	!	!	!	!LO:LB:g=original	!	!	!	!LO:LB:g=original	!	!	!	!
=17	=17	=17	=17	=17	=17	=17	=17	=17	=17	=17	=17	=17
4BB-/	.	2dd 2a- 2f/	.	(>4BB-/	two-	2f\	two-	2a-\	two-	2dd\	Two-	.
4BBn/	.	.	.	4BBn/)	.	.	.	.	.	.	.	.
4C/	.	4ee- 4g 4e-/	.	4C/	-ieẏ	4e-\	-ieẏ	4g\	-ieẏ	4ee-\	-ieẏ	.
4AA-/	.	4cc 4a- 4e-/	.	4AA-/	po-	4e-\	po-	4a-\	po-	4cc\	po-	.
!	!	!	!	!	!	!	!	!	!	!LO:LB:g=original	!	!
=18	=18	=18	=18	=18	=18	=18	=18	=18	=18	=18	=18	=18
*	*	*^	*	*	*	*	*	*	*	*	*	*
2BB-/	.	2.b-/	2g 2e-\	.	1BB-	-tę-	(2e-\	-tę-	(>2g/	-tę-	(2.b-\	-tę-	.
2BB-/	.	.	2f 2d\	.	.	.	4B-\	.	2f/)	.	.	.	.
.	.	4a-/	.	.	.	.	4A-\)	.	.	.	4d/)	.	.
*	*	*v	*v	*	*	*	*	*	*	*	*	*	*
!	!	!	!	!	!	!LO:LB:g=original	!	!	!	!	!	!
=19	=19	=19	=19	=19	=19	=19	=19	=19	=19	=19	=19	=19
2E-\	.	2g 2e-/	.	2E-\	-gi	2G/	-gi	2e-/	-gi	2e-/	-gi	.
2r	.	2r	.	2r	.	2r	.	2r	.	2r	.	.
!	!	!	!	!LO:LB:g=original	!	!	!	!LO:LB:g=original	!	!	!	!
=20||	=20||	=20||	=20||	=20||	=20||	=20||	=20||	=20||	=20||	=20||	=20||	=20||
*k[]	*	*k[]	*	*k[]	*	*k[]	*	*k[]	*	*k[]	*	*
!	!	!LO:TX:a:B:t=Poco moſso.	!	!	!	!LO:TX:t=P:problem:kolejność znaków An Bn en	!	!LO:TX:t=P:problem:kolejność znaków en fn an	!	!LO:TX:t=P:problem:kolejność znaków en fn an	!	!
!	!	!	!	!LO:TX:a:B:t=Poco Moſso	!	!LO:TX:a:B:t=Poco Moſso	!	!LO:TX:a:B:t=Poco\nMoſso.	!	!LO:TX:a:B:t=Poco\nMoſso.	!	!
2C/	.	2g 2e/	.	2C/	Chwa-	2c\	Chwa-	2e/	Chwa-	2g\	Chwa-	.
4C/	.	4g 4e/	.	4C/	-ła	4c\	-ła	4e/	-ła	4g\	-ła	.
4C/	.	4g 4e/	.	4C/	na	4c\	na	4e/	na	4g\	na	.
!	!	!	!	!	!	!LO:LB:g=original	!	!	!	!LO:LB:g=original	!	!
=21	=21	=21	=21	=21	=21	=21	=21	=21	=21	=21	=21	=21
2C/	.	2cc 2g 2e/	.	2C/	wẏ-	2en\	wẏ-	2g/	wȳ-	2cc\	wẏ-	.
2C/	.	2cc 2g 2e/	.	2C/	-so-	2e\	-so-	2g/	-so-	2cc\	-so-	.
!	!	!	!	!LO:LB:g=original	!	!	!	!	!	!	!	!
=22	=22	=22	=22	=22	=22	=22	=22	=22	=22	=22	=22	=22
1C	.	1een 1g	.	1C	-ko-	1c	-ko-	1f	-ko-	1een	-ko-	.
!	!	!	!	!	!	!	!	!LO:LB:g=original	!	!	!	!
=23	=23	=23	=23	=23	=23	=23	=23	=23	=23	=23	=23	=23
2C/	.	2cc 2g 2e/	.	2C/	-śći	2c\	-ści	2e/	-śći	2cc\	-śći	.
2r	.	2r	.	2r	.	2r	.	2r	.	2r	.	.
!	!	!	!	!	!	!LO:LB:g=original	!	!	!	!	!	!
=24	=24	=24	=24	=24	=24	=24	=24	=24	=24	=24	=24	=24
!	!	!	!	!LO:TX:a:t=1.	!	!	!	!	!	!	!	!
2f\	.	2cc 2a/	.	1r	.	2f\	Nie-	2a\	Nie-	2cc\	Nie-	.
2e\	.	2cc 2g/	.	.	.	2e\	-chaẏ	2g\	-chaẏ	2cc\	-chaẏ	.
!	!	!	!	!LO:LB:g=original	!	!	!	!	!	!LO:LB:g=original	!	!
=25	=25	=25	=25	=25	=25	=25	=25	=25	=25	=25	=25	=25
*	*	*^	*	*	*	*	*	*	*	*	*	*
*	*	*	*^	*	*	*	*	*	*	*	*	*	*
2d 2G\	.	2b/	1g	2f\	.	2G\	Nie-	2d\	te-	2g\	te-	2b\	te-	.
2c 2C\	.	2cc/	.	2e\	.	2C/	-chaẏ	2c\	-mu	2g\	-mu	2cc\	-mu	.
*	*	*	*v	*v	*	*	*	*	*	*	*	*	*	*
!LO:LB:g=original	!	!LO:LB:g=original	!	!	!	!	!	!	!	!	!	!	!
=26	=26	=26	=26	=26	=26	=26	=26	=26	=26	=26	=26	=26	=26
1G 1GG	.	2.dd 2.b/	2.f\	.	2.GG/	bę-	2.B\	bę-	2.f/	bę-	2.dd\	bę-	.
.	.	4dd 4b/	4f\	.	4GG/	-dzie	4B\	-dzie	4f/	-dzie	4dd\	-dzie	.
*	*	*v	*v	*	*	*	*	*	*	*	*	*	*
!	!	!	!	!	!	!LO:LB:g=original	!	!LO:LB:g=original	!	!	!	!
=27	=27	=27	=27	=27	=27	=27	=27	=27	=27	=27	=27	=27
!	!	!LO:N:vis=2	!	!	!	!	!	!	!	!	!	!
2.C/	.	2.cc 2.e/	.	2C/	da-	2c\	da-	2e/	da-	2cc\	da-	.
.	.	.	.	2C;/	-na	2c;\	-na	2e;/	-na	2cc;\	-na	.
4r;	.	4r;	.	.	.	.	.	.	.	.	.	.
!	!	!	!	!LO:PB:g=original	!	!	!	!	!	!LO:LB:g=original	!	!
=28	=28	=28	=28	=28	=28	=28	=28	=28	=28	=28	=28	=28
2G\	.	2dd 2b/	.	2G\	Kto-	2d\	kto-	2b\	Kto-	2dd\	Kto-	.
2D\	.	2cc 2a 2f#X/	.	2D\	-rẏ	2d\	-rẏ	2a\	-rẏ	2cc\	-rẏ	.
!	!	!	!	!	!	!LO:LB:g=original	!	!	!	!	!	!
=29	=29	=29	=29	=29	=29	=29	=29	=29	=29	=29	=29	=29
2E\	.	2b 2g/	.	2E\	przẏ-	2e\	przẏ-	2g\	przẏ-	2b\	przẏ-	.
2C\	.	4ee 4cc/	.	2C\	-szedł	(4c\	-szedł.	(4cc\	-szedł	(4ee\	-szedł	.
.	.	4cc 4a/	.	.	.	4e\)	.	4a\)	.	4cc\)	.	.
!	!	!	!	!	!	!LO:PB:g=original	!	!LO:LB:g=original	!	!	!	!
=30	=30	=30	=30	=30	=30	=30	=30	=30	=30	=30	=30	=30
*^	*	*	*	*	*	*	*	*	*	*	*	*
2.d\	2D\	.	2b 2g/	.	2.D\	w I-	2.d\	w_I-	2g\	w_I-	2b\	w_I-	.
.	2D\	.	2a 2f#X/	.	.	.	.	.	2f#X\	-mie	2a\	-mie	.
4c\	.	.	.	.	4D\	-mie	4c\	-mie	.	.	.	.	.
*v	*v	*	*	*	*	*	*	*	*	*	*	*	*
!	!	!	!	!	!	!	!	!	!	!LO:PB:g=original	!	!
=31	=31	=31	=31	=31	=31	=31	=31	=31	=31	=31	=31	=31
2B 2G\	.	2g/	.	2G\	Pa-	2B\	Pa-	2g\	Pa-	2g/	Pa-	.
2GG;/	.	2g;/	.	2G;\	-na	2B;\	-na	2g;\	-na	2g;/	-na	.
!	!	!	!	!LO:LB:g=original	!	!	!	!LO:PB:g=original	!	!	!	!
=32	=32	=32	=32	=32	=32	=32	=32	=32	=32	=32	=32	=32
1G	.	2g 2B/	.	2G\	Chwa-	2G/	Chwa-	2g\	Chwa-	2g/	Chwa-	.
.	.	4g 4B/	.	4G\	-ła	4G/	-ła	4g\	-ła	4g/	-ła	.
.	.	4g 4B/	.	4G\	na	4G/	na	4g\	na	4g/	na	.
=33	=33	=33	=33	=33	=33	=33	=33	=33	=33	=33	=33	=33
2D\	.	2b 2g 2f/	.	2D\	wẏ-	2f\	wẏ-	2g\	wẏ-	2b\	wẏ-	.
2C\	.	2dd 2b 2f/	.	2BB/	-so-	2d\	-so-	2b\	-so-	2dd\	-so-	.
!	!	!	!	!	!	!LO:LB:g=original	!	!	!	!	!	!
=34	=34	=34	=34	=34	=34	=34	=34	=34	=34	=34	=34	=34
1GG	.	[1ff 1dd 1b	.	1GG	-ko-	1B	-ko-	1dd	-ko-	1ff	-ko-	.
=35	=35	=35	=35	=35	=35	=35	=35	=35	=35	=35	=35	=35
*	*	*^	*	*	*	*	*	*	*	*	*	*
2GG/	.	2ff] 2dd/	2b\	.	2GG/	-śći	2B\	-śći	2b\	-śći	2dd\	-śći	.
2r;	.	2r;	2ryy	.	2r;	.	2r;	.	2r;	.	2r;	.	.
*	*	*v	*v	*	*	*	*	*	*	*	*	*	*
!LO:PB:g=original	!	!LO:PB:g=original	!	!LO:LB:g=original	!	!	!	!LO:LB:g=original	!	!LO:LB:g=original	!	!
=36	=36	=36	=36	=36	=36	=36	=36	=36	=36	=36	=36	=36
*k[b-e-a-]	*	*k[b-e-a-]	*	*k[b-e-a-]	*	*k[b-a-e-]	*	*k[e-a-b-]	*	*k[e-a-b-]	*	*
!	!	!	!	!	!	!	!	!LO:TX:a:B:t=Largo.	!	!	!	!
!	!	!LO:TX:a:B:t=Largo	!	!	!	!	!	!LO:TX:t=P:problem:przy kluczu błędnie e- f- b-	!	!LO:TX:a:B:t=Largo	!	!
4C\	.	2g 2e-/	.	(2C/	Swię-	(2G/	Swię-	(>2e-/	Swię-	(>2g/	Swię-	.
4E-\	.	.	.	.	.	.	.	.	.	.	.	.
4G\	.	2f 2d 2Bn/	.	2G\	.	2Bn/	.	2d/)	.	2f/)	.	.
4GG/	.	.	.	.	.	.	.	.	.	.	.	.
=37	=37	=37	=37	=37	=37	=37	=37	=37	=37	=37	=37	=37
2AA-/	.	2e- 2c/	.	2A-\)	-tẏ	2c\)	-tẏ	2c/	-tẏ	2e-/	-tẏ	.
2r	.	2r	.	2r	.	2r	.	2r	.	2r	.	.
!	!	!	!	!	!	!LO:LB:g=original	!	!	!	!	!	!
=38	=38	=38	=38	=38	=38	=38	=38	=38	=38	=38	=38	=38
*^	*	*	*	*	*	*	*	*	*	*	*	*
2.c/	2F\	.	2a- 2f/	.	2F\	Swię-	1c	Swię-	(>2f/	Swię-	(>2a-/	Swię-	.
.	2C\	.	2g 2en/	.	2C/	.	.	.	2en/)	.	2g/)	.	.
4B-/	.	.	.	.	.	.	.	.	.	.	.	.	.
!	!	!	!	!	!	!	!	!	!	!	!LO:LB:g=original	!	!
*v	*v	*	*	*	*	*	*	*	*	*	*	*	*
=39	=39	=39	=39	=39	=39	=39	=39	=39	=39	=39	=39	=39
2F\	.	2f 2A-</	.	2FF/	-tẏ	2c\	-tẏ	2f/	-tẏ	2f/	-tẏ	.
2r	.	2r	.	2r	.	2r	.	2r	.	2r	.	.
!	!	!	!	!LO:LB:g=original	!	!	!	!LO:LB:g=original	!	!	!	!
=40	=40	=40	=40	=40	=40	=40	=40	=40	=40	=40	=40	=40
!	!	!	!LO:DY:rj:b=2:t=for	!	!	!	!	!	!	!	!	!
2A-\	.	2cc 2e-/	f	2A-\	trzy-	2e-\	trzy-	2.e-/	Trzy-	2cc\	trzy-	.
4G\	.	4b- 4e-/	.	(4G\	.	2e-\	-kroć	.	.	(4b-\	-kroć	.
4E-\	.	4cc 4g 4e-/	.	4E-\)	-kroc	.	.	4g/	-kroć	4cc\)	.	.
=41	=41	=41	=41	=41	=41	=41	=41	=41	=41	=41	=41	=41
*	*	*^	*	*	*	*	*	*	*	*	*	*
2D\	.	2.b-/	2f\	.	(2D\	Swię-	(2B-\	Swię-	1f	Swię-	(2.b-\	Swię-	.
2BB-/	.	.	2f 2d\	.	2BB-/)	.	2d\	.	.	.	.	.	.
.	.	4a-/	.	.	.	.	.	.	.	.	4a-\)	.	.
=42	=42	=42	=42	=42	=42	=42	=42	=42	=42	=42	=42	=42	=42
*^	*	*	*	*	*	*	*	*	*	*	*	*	*
!LO:N:vis=1	!	!	!	!	!	!	!	!	!	!	!	!	!	!
2.B-	4E-\	.	2g 2e-/	2reyy	.	2E-\	-tẏ	2e-\)	-tẏ	2e-/	-tẏ	2g\	-tẏ	.
.	4G\	.	.	.	.	.	.	.	.	.	.	.	.	.
.	4B- 4E-\	.	4g/	4reyy	.	2r	.	2r	.	2r	.	2r	.	.
4ryy	4Bn 4D\	.	4g/	4f\	.	.	.	.	.	.	.	.	.	.
*v	*v	*	*	*	*	*	*	*	*	*	*	*	*	*
*	*	*v	*v	*	*	*	*	*	*	*	*	*	*
!	!	!	!	!	!	!LO:LB:g=original	!	!	!	!LO:LB:g=original	!	!
=43	=43	=43	=43	=43	=43	=43	=43	=43	=43	=43	=43	=43
2c 2C\	.	2g 2e-/	.	2C/	Bóg	2e-\	Bog	2e-/	Bóg	2g\	Bóg	.
!	!	!	!	!LO:LB:g=original	!	!	!	!	!	!	!	!
4F\	.	2an 2e- 2c/	.	4F\	za-	2c\	za-	2e-/	za-	2an\	za-	.
4F#X\	.	.	.	4F#X\	.	.	.	.	.	.	.	.
!LO:LB:g=original	!	!LO:LB:g=original	!	!	!	!	!	!LO:LB:g=original	!	!	!	!
=44	=44	=44	=44	=44	=44	=44	=44	=44	=44	=44	=44	=44
*^	*	*	*	*	*	*	*	*	*	*	*	*
2d> 2B-/	2G\	.	2b- 2d/	.	2G\	-stę-	2B-\	-stę-	2d/	-stę-	2b-\	-stę-	.
2b-> 2g>\	2E-\	.	2cc/	.	2E-\	-pow	2G/	-pow	2g/	-pow	2cc\	-pów	.
=45	=45	=45	=45	=45	=45	=45	=45	=45	=45	=45	=45	=45	=45
*	*	*	*^	*	*	*	*	*	*	*	*	*	*
2.f\	2F\	.	2.dd/	2.b-\	.	2.F\	nie-	2.F/	nie-	2.b-\	Nie-	2.dd\	nie-	.
.	2ryy	.	.	.	.	.	.	.	.	.	.	.	.	.
4e-\	.	.	4cc 4an/	4reyy	.	4FF/	-po-	4E-/	-po-	4an\	-po-	4cc\	-po-	.
*v	*v	*	*	*	*	*	*	*	*	*	*	*	*	*
*	*	*v	*v	*	*	*	*	*	*	*	*	*	*
!	!	!	!	!	!	!	!	!	!	!LO:LB:g=original	!	!
=46	=46	=46	=46	=46	=46	=46	=46	=46	=46	=46	=46	=46
2.d 2.B-\	.	[>2b-/	.	2BB-/	-ię-	2D/	-ię-	2b-\	-ię-	2b-\	-ię-	.
.	.	4b-/]	.	4BB-/	-tẏ	4D/	-tẏ	4b-\	-tẏ	4b-\	-tẏ	.
4r	.	4r	.	4r	.	4r	.	4r	.	4r	.	.
!	!	!	!	!LO:LB:g=original	!	!LO:LB:g=original	!	!LO:LB:g=original	!	!	!	!
=47	=47	=47	=47	=47	=47	=47	=47	=47	=47	=47	=47	=47
!	!	!	!LO:DY:b=2:t=pia	!	!	!	!	!	!	!	!	!
2Bn 2BBn\	.	2g 2d/	p	2BBn/	Zie-	2G/	Zie-	2d/	Zie-	2g/	Zie-	.
4B 4BB\	.	4g 4d/	.	4BB/	-mia	4G/	-mia	4d/	-mia	4g/	-mia	.
4B 4BB\	.	4g 4d/	.	4BB/	ẏ	4G/	ẏ	4d/	ẏ	4g/	ẏ	.
=48	=48	=48	=48	=48	=48	=48	=48	=48	=48	=48	=48	=48
*	*	*^	*	*	*	*	*	*	*	*	*	*
2C/	.	4g/	2e-\	.	2C/	Nie-	(>4G/	Nie-	2e-/	Nie-	(>4g/	Nie-	.
.	.	4an 4f#X/	.	.	.	.	4F#X/)	.	.	.	4an/)	-bios	.
4BB-X/	.	2b- 2g/	4d\	.	4BB-X/	-bios	4G/	-bios	4d/	-bios	2b-/	O-	.
4E-/	.	.	4rg	.	4E-/	O-	4G/	O-	4g/	O-	.	.	.
!	!	!	!	!	!	!	!	!	!	!	!LO:LB:g=original	!	!
=49	=49	=49	=49	=49	=49	=49	=49	=49	=49	=49	=49	=49	=49
*	*	*	*^	*	*	*	*	*	*	*	*	*	*
2C/	.	1an	2g 2e-\	2ryy	.	2C/	-krę-	(2e-\	-krę-	(2g\	-krę-	1an	-krę-	.
2D/	.	.	2f#X/	4d\	.	2D/	.	4d\	.	2f#X\)	.	.	.	.
.	.	.	.	4c\	.	.	.	4c\)	.	.	.	.	.	.
*	*	*v	*v	*v	*	*	*	*	*	*	*	*	*	*
!	!	!	!	!	!	!LO:LB:g=original	!	!LO:LB:g=original	!	!	!	!
=50	=50	=50	=50	=50	=50	=50	=50	=50	=50	=50	=50	=50
4.G\	.	2g 2B-/	.	2G\	-gi	2B-\	-gi	2g\	-gi	2g\	-gi	.
8A-\	.	.	.	.	.	.	.	.	.	.	.	.
4G\	.	2r	.	2r	.	2r	.	2r	.	2r	.	.
!	!	!	!LO:DY:b=2:t=for	!	!	!	!	!	!	!	!	!
4F\	.	.	f	.	.	.	.	.	.	.	.	.
!	!	!	!	!LO:LB:g=original	!	!	!	!	!	!	!	!
=51	=51	=51	=51	=51	=51	=51	=51	=51	=51	=51	=51	=51
1E-	.	2b- 2g/	.	2E-\	Peł-	2B-\	Peł-	2g\	Peł-	2b-\	Peł-	.
.	.	4cc 4a-/	.	4E-\	-ne	4d\	-ne	4a-\	-ne	4cc\	-ne	.
.	.	4b- 4g/	.	4E-\	są	4e-\	są	4g\	są	4b-\	są	.
!LO:PB:g=original	!	!LO:PB:g=original	!	!	!	!	!	!	!	!	!	!
=52	=52	=52	=52	=52	=52	=52	=52	=52	=52	=52	=52	=52
4BB-/	.	2dd 2a- 2f/	.	(4B- 4BB-\	two-	2f\	two-	2a-\	two-	2dd\	two-	.
4BBn/	.	.	.	4Bn 4BBny\)	.	.	.	.	.	.	.	.
4C/	.	4ee- 4g 4e-/	.	4c 4C\	-ieẏ	4e-\	-ieẏ	4g\	-ieẏ	4ee-\	-ieẏ	.
4F\	.	4dd 4a-/	.	4F\	po-	4d\	po-	4a-\	po-	4dd\	po-	.
!	!	!	!	!	!	!LO:LB:g=original	!	!LO:LB:g=original	!	!LO:LB:g=original	!	!
=53	=53	=53	=53	=53	=53	=53	=53	=53	=53	=53	=53	=53
*^	*	*^	*	*	*	*	*	*	*	*	*	*
2e->\	2G\	.	2cc/	2.g/	.	(2G\	-tę-	(2c\	-tę-	(>2e-/	-tę-	(2cc\	-te-	.
2d>\	2GG/	.	2bn/	.	.	2GG/)	.	2d\	.	2f/	.	2bn\)	.	.
.	.	.	.	4f\	.	.	.	.	.	.	.	.	.	.
*v	*v	*	*v	*v	*	*	*	*	*	*	*	*	*	*
!	!	!	!	!LO:LB:g=original	!	!	!	!	!	!	!	!
=54	=54	=54	=54	=54	=54	=54	=54	=54	=54	=54	=54	=54
2C/	.	2cc 2e-/	.	2C/	-gi	2c\)	-gi.	2e-/)	-gi	2cc\	-gi	.
2r	.	2r	.	2r	.	2r	.	2r	.	2r	.	.
==	==	==	==	==	==	==	==	==	==	==	==	==
*-	*-	*-	*-	*-	*-	*-	*-	*-	*-	*-	*-	*-
!!!system-decoration: [(g1)]{s5,s6}
!!!RDF**kern: > = above
!!!RDF**kern: < = below
!!!AIN: 1 bass 1 organ 2 soprn 1 tenor
!!!ENC: Marcin Jachim
!!!END: 2020-10-04
!!!ENC: Andrzej Kubiczek
!!!END: 2021-11-07
